modules/framework7-icons/icons/check_round_fill.svg

<?xml version="1.0" encoding="UTF-8"?>
<svg width="50px" height="50px" viewBox="0 0 50 50" version="1.1" xmlns="http://www.w3.org/2000/svg" xmlns:xlink="http://www.w3.org/1999/xlink">
    <!-- Generator: Sketch 40.1 (33804) - http://www.bohemiancoding.com/sketch -->
    <title>check_round_fill</title>
    <desc>Created with Sketch.</desc>
    <defs></defs>
    <g id="Page-1" stroke="none" stroke-width="1" fill="none" fill-rule="evenodd">
        <g id="check_round_fill" fill="#000000">
            <path d="M25,50 C38.8071187,50 50,38.8071187 50,25 C50,11.1928813 38.8071187,0 25,0 C11.1928813,0 0,11.1928813 0,25 C0,38.8071187 11.1928813,50 25,50 Z M20.2928932,33.7071068 L21,34.4142136 L21.7071068,33.7071068 L38.7071068,16.7071068 L37.2928932,15.2928932 L20.2928932,32.2928932 L21.7071068,32.2928932 L13.7071068,24.2928932 L12.2928932,25.7071068 L20.2928932,33.7071068 Z" id="Combined-Shape"></path>
        </g>
    </g>
</svg>

<svg width="50" height="50" xmlns="http://www.w3.org/2000/svg"><path d="M25 50c13.807 0 25-11.193 25-25S38.807 0 25 0 0 11.193 0 25s11.193 25 25 25zm-4.707-16.293l.707.707.707-.707 17-17-1.414-1.414-17 17h1.414l-8-8-1.414 1.414 8 8z" fill-rule="evenodd"/></svg>
